X:1
T:GENDARME GALOP
T:GENDARME GALOP
T:from Geneviève de Brabant
T:J. Offenbach Arranged by W.M. Dressler 
C:J. Offenbach
%%score { ( 1 3 ) | 2 }
L:1/8
M:2/4
K:C
V:1 treble nm="Piano" snm="Pno."
V:3 treble 
V:2 bass 
V:1
!mf! gB g2 | ac a2 | bd c'e | [fd']2 (5:4:5(g/a/b/c'/d'/) |: eG e2 | fA f2 | eG ef |{/e} d^B d2 | %8
 eG e2 | fA f2 | eG de |{/e} dc c2 :| [ce][Ac] [ce][Ac] | [ce][Ac] [ce][Ac] | [Bd][^A^c] [Bd][df] | %15
 [ce]2 [ca]2 | [ce][Ac] [ce][Ac] | [ce][Ac] [ce]f | eB cB | A2 a z || eG e2 | fA f2 | eG ef | %23
{/e} d^B d2 | eG e2 | fA f2 | eG de | c2 ||!ff! (3(GBc) | d2 d2 | e>d c>A | G4 | G2 (3(GBc) | %33
 d2 d2 | e>d c>A | G4 | z2 (3(DGA) | B2 d>d | c2 B2 | A2 A>A | A^F AF | BG BG | ^cA cA | dd/d/ dd | %44
 dd dd | eA A2 | c^F F2 | GA Bc | d2 BB | cB B2 | A^F F2 | E^F GA | B2 Bd | eA A2 | c^F F2 | %55
 GA Bc | d2 BG | c>B c>B | c2 G>G | e>^d e>d | e2 e>e | e>e ^f>e | d>B G>e | d3 A | B2 z G | %65
 e>^d e>d | d>B G>e | d3 ^f | g2 (5:4:5(G/A/B/c/d/) |: eG e2 | fA f2 | eG ef |{/e} d^c d2 | eG e2 | %74
 fA f2 | eG ef |1{/e} dc c2 :|2{/e} dc c z!fine! ||[K:F]!f! [cegb]>c c2 | [ceg]>c c2 | [cfa]>f f2 | %81
 [eg]>[df] [ce]>[Bd] | [Ac] z [cfa] z | [Bdg] z [GBce] z | [Acf] z z2 | z3/2 (f/ A>)B |: c z c z | %87
 c z c z | (c7/2 d/) | c z/ (f/ A>)B | c z c z | B z E z | F4 |1 f z/ (f/ A>)B :|2 f z/ (F/ f>)e || %95
 d z B z | d z B z | c4 | f z/ (F/ f>)e | d z B z | d z B z |!ped! (c4 | c>)!ped-up!A G>A | %103
!ped! B4 | [cc']>!ped-up!B A>B |!ped! c4 | [cc']>!ped-up!(c g>)f | f z d z | e z d z |!ped! c4 | %110
 [cc']>!ped-up!A G>A |!ped! B4 | [cc']>!ped-up!B A>B | A>[df] [de]>[df] | [eg]>[df] [ce]>[Bd] | %115
 [Ac] z [Acf] z | [GBf] z [GBe] z |!ped! [Acf]4 | [Acf]2!ped-up! z2 |] %119
V:2
 [G,,B,,D,][G,,B,,D,] [G,,B,,D,]2 | [G,,C,E,][G,,C,E,] [G,,C,E,]2 | %2
 [G,,D,F,][G,,D,F,] [G,,C,E,][G,,C,E,] | [G,,B,,D,]2 z2 |: C,[E,G,C] C,[E,G,C] | %5
 C,[F,A,C] C,[F,A,C] | C,[E,G,C] C,[E,G,C] | G,,[F,G,B,] G,,[F,G,B,] | C,[E,G,C] C,[E,G,C] | %9
 C,[F,A,C] C,[F,A,C] | G,,[E,G,C] G,,[F,G,B,] | C,[E,G,C] C,[E,G,C] :| A,[CE] A,[CE] | %13
 A,[CE] A,[CE] | D,[F,A,D] D,[F,A,D] | A,[CE] A,[CE] | A,[CE] A,[CE] | A,[CE] A,[CE] | %18
 E,[^G,B,D] E,[G,B,D] | A,[CE] [A,CE] z || C,[E,G,C] C,[E,G,C] | C,[F,A,C] C,[F,A,C] | %22
 C,[E,G,C] C,[E,G,C] | G,,[F,G,B,] G,,[F,G,B,] | C,[E,G,C] C,[E,G,C] | C,[F,A,C] C,[F,A,C] | %26
 G,,[E,G,C] G,,[F,G,B,] | [C,E,G,C]2 || z2 | [G,,B,,D,G,]2 [G,,B,,D,G,]2 | [D,^F,A,D]2 [D,F,A,D]2 | %31
 [G,,B,,D,G,]2 [G,,B,,D,G,]2 | [G,,B,,D,G,]2 [G,,B,,D,G,]2 | [G,,B,,D,G,]2 [G,,B,,D,G,]2 | %34
 [D,^F,A,D]2 [D,F,A,D]2 | [G,,B,,D,G,]2 [G,,B,,D,G,]2 | [G,,B,,D,G,]2 [G,,B,,D,G,]2 | %37
 [G,,B,,D,G,]2 [G,,B,,D,G,]2 | [^F,,A,,D,^F,]2 [G,,B,,D,G,]2 | [D,^F,A,]2 [D,F,A,]2 | %40
 [D,^F,A,]2 [D,F,A,]2 | [D,G,B,]2 [D,G,B,]2 | [A,,E,G,]2 [A,,E,G,]2 | [D,^F,A,][D,D] [D,D][D,D] | %44
 [D,D][D,D] [D,D][D,D] | D,[^F,A,D] [F,A,D][F,A,D] | D,[A,CD] [A,CD][A,CD] | %47
 G,,[G,B,D] [G,B,D][G,B,D] | G,,[G,B,D] [G,B,D][G,B,D] | ^D,[^F,A,B,] [F,A,B,][F,A,B,] | %50
 B,,[^D,^F,B,] [D,F,B,][D,F,B,] | E,[G,B,] [G,B,][G,B,] | E,[G,B,] [G,B,][G,B,] | %53
 D,[^F,A,D] [F,A,D][F,A,D] | D,[A,CD] [A,CD][A,CD] | G,,[G,B,D] [G,B,D][G,B,D] | %56
 G,,[G,B,D] [G,B,D][G,B,D] | E,[G,C] [G,C][G,C] | E,[G,C] [G,C][G,C] | C,[E,G,C] [E,G,C][E,G,C] | %60
 C,[E,G,C] [E,G,C][E,G,C] | C,[E,G,C] [E,G,C][E,G,C] | D,[G,B,] [G,B,][G,B,] | %63
 D,[^F,C] [F,C][F,C] | G,,[D,G,B,] [D,G,B,][D,G,B,] | C,[E,G,C] [E,G,C][E,G,C] | %66
 D,[G,B,] [G,B,][G,B,] | D,[A,C] [A,C][A,C] | [G,B,]2 z2 |: C,[E,G,C] C,[E,G,C] | %70
 C,[F,A,C] C,[F,A,C] | C,[E,G,C] C,[E,G,C] | G,,[F,G,B,] G,,[F,G,B,] | C,[E,G,C] C,[E,G,C] | %74
 C,[F,A,C] C,[F,A,C] | C,[E,G,C] C,[E,G,C] |1 C,[E,G,C] C,[E,G,C] :|2 %77
 [C,E,G,C][C,E,G,C] [C,E,G,C] z ||[K:F] [C,,C,]>[C,E,G,B,] [C,E,G,B,]2 | %79
 [C,,C,]>[C,E,G,B,] [C,E,G,B,]2 | [F,,F,]>[C,F,A,] [C,F,A,]2 | [B,,,B,,]>[C,,C,] [D,,D,]>[E,,E,] | %82
 [F,,F,] z [F,,F,] z | [B,,,B,,] z [C,,C,] z | F,,[C,F,A,] F,,[C,F,A,] | F,,[C,F,A,] F,,[C,F,A,] |: %86
 F,,[C,F,A,] F,,[C,F,A,] | C,[E,G,B,] C,[E,G,B,] | F,,[C,F,A,] F,,[C,F,A,] | %89
 F,,[C,F,A,] F,,[C,F,A,] | F,,[C,F,A,] F,,[C,F,A,] | C,[E,G,B,] C,[E,G,B,] | %92
 F,,[C,F,A,] F,,[C,F,A,] |1 F,,[C,F,A,] F,,[C,F,A,] :|2 F,,[C,F,A,] F,,[C,F,A,] || %95
 B,,[D,F,B,] B,,[D,F,B,] | B,,[D,F,B,] B,,[D,F,B,] | F,,[C,F,A,] F,,[C,F,A,] | %98
 F,,[C,F,A,] F,,[C,F,A,] | B,,[D,F,B,] B,,[D,F,B,] | B,,[D,F,B,] B,,[D,F,B,] | %101
 F,,[C,F,A,] F,,[C,F,A,] | F,,[C,F,A,] F,,[C,F,A,] | C,[E,G,B,] [E,G,B,][E,G,B,] | %104
 C,[E,G,B,] [E,G,B,][E,G,B,] | C,[F,A,C] [F,A,C][F,A,C] | C,[F,A,C] [F,A,C][F,A,C] | %107
 C,[G,B,] [G,B,][G,B,] | C,[E,B,] [E,B,][E,B,] | F,,[C,F,A,] F,,[C,F,A,] | %110
 F,,[C,F,A,] F,,[C,F,A,] | C,[E,G,B,] [E,G,B,][E,G,B,] | C,[E,G,B,] [E,G,B,][E,G,B,] | %113
 D,[F,A,D] D,[F,A,D] | B,,[D,F,B,] B,,[D,F,B,] | C,[F,A,] C,[F,A,] | C,[G,B,] C,[G,B,] | %117
 F,,[C,F,A,] F,,[C,F,A,] | [F,,F,]2 z2 |] %119
V:3
 x4 | x4 | x4 | x4 |: x4 | x4 | x4 | x4 | x4 | x4 | x4 | x4 :| x4 | x4 | x4 | x4 | x4 | x4 | x4 | %19
 x4 || x4 | x4 | x4 | x4 | x4 | x4 | x4 | x2 || x2 | x4 | x4 | x4 | x4 | x4 | x4 | x4 | x4 | x4 | %38
 x4 | x4 | x4 | x4 | x4 | x4 | x4 | x4 | x4 | x4 | x4 | x4 | x4 | x4 | x4 | x4 | x4 | x4 | x4 | %57
 x4 | x4 | x4 | x4 | x4 | x4 | x4 | x4 | x4 | x4 | x4 | x4 |: x4 | x4 | x4 | x4 | x4 | x4 | x4 |1 %76
 x4 :|2 x4 ||[K:F] x4 | x4 | x4 | x4 | x4 | x4 | x4 | x4 |: x4 | x4 | x4 | x4 | x4 | x4 | %92
 (3FFA (3cAc |1 x4 :|2 x4 || x4 | x4 | x4 | x4 | x4 | x4 | c>c' c'>c' | c' z z2 | %103
 z3/2 [cc']/ [cc']>[cc'] | x4 | z3/2 [cc']/ [cc']>[cc'] | x4 | x4 | x4 | z3/2 [cc']/ [cc']>[cc'] | %110
 x4 | z3/2 [cc']/ [cc']>[cc'] | x4 | x4 | x4 | x4 | x4 | x4 | x4 |] %119

